X:2
T:Greenland Man's Tune, The
R:hornpipe
M:4/4
L:1/8
N:Transposed from Emix
K:Amix
|:g>e f>d (3efe A2|B>c d>c B>G G2|g>e f>d (3efe A2|c>d e>c d2d2:|
|:e2 e>f g2 g>e|d2 d>B G>A B>d|e2 e>f g2 g>e|1d>B (3BAG A4:|2d>B (3BAG A3f|]
</abc>
